TV/Source/ABXplore.svg

<svg version="1.1" viewBox="0 0 297 50" xmlns="http://www.w3.org/2000/svg">
 <path transform="translate(0)" d="m80.48 35.78c-2.68 4.07-5.32 8-7.85 12a2.76 2.76 0 0 1-2.69 1.47c-3.5-0.07-7 0-10.52 0a1.78 1.78 0 0 1-0.52 0c-0.47-0.15-1.17-0.23-1.31-0.54s0.11-1 0.37-1.39c2.27-3.4 4.57-6.77 6.87-10.16l7.47-11c0.23-0.33 0.42-0.69 0.7-1.13-1.43-2.13-2.84-4.26-4.28-6.38l-10.63-15.71a5.31 5.31 0 0 1-0.55-0.94 0.83 0.83 0 0 1 0.6-1.17 1.1 1.1 0 0 1 0.35 0c4.15 0 8.3 0 12.45 0.06 0.53 0 1.19 0.68 1.54 1.21 2.53 3.78 5 7.61 7.5 11.42 0.13 0.19 0.27 0.38 0.5 0.69a13.56 13.56 0 0 0 0.86-1.06c2.43-3.75 4.89-7.45 7.28-11.15a2.26 2.26 0 0 1 2.13-1.23c10.93 0 21.86 0 32.78 0.1a16.36 16.36 0 0 1 11.27 4.07 13.1 13.1 0 0 1 4.06 8.12 18.92 18.92 0 0 1-0.52 8.15c-1.58 5.37-5.33 8.47-10.68 9.77a32.29 32.29 0 0 1-8.18 0.66h-4c0 0.61-0.09 1.11-0.09 1.61v14c0 1.94 0 1.95-1.95 2h-22.26a2.77 2.77 0 0 1-2.72-1.43c-2.22-3.57-4.57-7.05-6.89-10.56-0.32-0.49-0.68-0.93-1.09-1.48zm22.15 10.74v-42.9c-0.25 0.3-0.37 0.41-0.47 0.55-4.45 6.56-8.89 13.14-13.37 19.67a1.74 1.74 0 0 0 0 2.33c2.43 3.49 4.8 7 7.18 10.56zm12.84-24.65h6c4.3-0.13 6.47-3.11 5.5-7.36a4.47 4.47 0 0 0-3.32-3.67 27.13 27.13 0 0 0-8.17-0.37zm54.17 3.05c-0.18-13.6 11.26-24.92 24.91-24.92a25 25 0 0 1 0 50c-13.63 0-25.15-11.34-24.91-25.07zm24.91 13.36a13.29 13.29 0 1 0-13.27-13.28 13.28 13.28 0 0 0 13.28 13.29zm46.28-6.57h-6.57v1.81q0 6.93 0 13.86c0 1.82 0 1.83-1.88 1.83h-8.94c-1.65 0-1.73-0.07-1.73-1.64q0-22.55 0-45.09c0-1.63 0.08-1.7 1.66-1.7 6.6 0 13.21 0 19.81 0.06a19.65 19.65 0 0 1 7.17 1.42c5 2 8 5.72 8.67 11.13a17.23 17.23 0 0 1-1.77 10.54 15.41 15.41 0 0 1-5 5.23c0.33 0.64 0.62 1.25 1 1.84q4.64 8 9.29 16.06c0.12 0.2 0.26 0.39 0.36 0.6 0.5 1.08 0.25 1.52-1 1.53h-11.22c-1.1 0-1.51-0.65-1.91-1.48q-3.44-7.08-6.92-14.14c-0.33-0.57-0.67-1.19-1.01-1.85zm-6.48-9.87c2.64 0 5.2 0.07 7.74 0a4.92 4.92 0 0 0 5-4.45c0.6-3.32-1.11-6.4-4-6.68s-5.78-0.06-8.73-0.06zm60.07 6.16q0-3.07 0-6.14c0-1.68-0.11-1.77-1.81-1.77h-13.32c-0.5 0-1-0.06-1.48-0.09v-9.44h16.19c2.33 0 2.33 0 2.33-2.25v-5.61c0-0.56-0.06-1.13-0.09-1.78-0.65 0-1.16-0.09-1.68-0.09h-28.4c-0.74 0-1.06 0.35-1 1.08v1.05q0 22 0 44v1.23a0.89 0.89 0 0 0 1 1h29.8c0.7 0 1.1-0.27 1.1-1q0-3.86 0-7.72a0.91 0.91 0 0 0-0.95-1h-18.23v-9.65h16.37a16.68 16.68 0 0 0 0.17-1.82zm-141.88-27.21h-10c-1.22 0-1.4 0.2-1.49 1.4v1.23q0 21.49 0 43v1.23c0.06 1.42 0.21 1.59 1.66 1.59h27c1.5 0 1.6-0.1 1.61-1.58v-7.19c0-1.72 0-1.76-1.77-1.76h-14.36c-0.5 0-1-0.06-1.59-0.11v-37.68a10.19 10.19 0 0 0-1.06-0.13z" fill="#20899b"/>
 <path d="m49.04 49.21c0.69777 0.04007 1.3574-0.3208 1.7-0.93 4.9933-7.4 9.9933-14.79 15-22.17 0.59399-0.65545 0.59399-1.6546 0-2.31-4.9867-7.2467-9.9333-14.53-14.84-21.85-0.45505-0.80527-1.3386-1.2705-2.26-1.19l-48.64 0.03v48.42z" fill="#fff"/>
 <path d="m38.06 31.4v-3.92c1.78 0 3.56-0.06 5.33 0 0.97553 0.10013 1.6914 0.96273 1.61 1.94 0.15556 0.98987-0.57939 1.8969-1.58 1.95-1.68 0.13-3.42 0.03-5.36 0.03zm0-9.21h4.44c1.17 0 1.66-0.62 1.65-1.77s-0.48-1.71-1.66-1.76c-1.44-0.05-2.89 0-4.43 0zm-20.4-1.53-2.11 7.11h4.14zm13.63-7.66c0.4 0 0.74-0.09 1.08-0.09h12.45c2.5399-0.12109 4.8447 1.4783 5.62 3.9 0.96082 2.5336 0.25184 5.3973-1.78 7.19-0.22 0.18-0.46 0.35-0.84 0.64 0.44 0.28 0.78 0.53 1.14 0.74 2.43 1.43 3.12 3.68 2.86 6.3-0.15663 2.1722-1.6552 4.0144-3.75 4.61-1.4272 0.49986-2.9195 0.78956-4.43 0.86-3.85 0.12-7.71 0-11.57 0-0.25834-0.01883-0.51542-0.05222-0.77-0.1zm-18.22 24h-6.81c0.5-1.52 1-3 1.48-4.44 2.0933-6.0333 4.18-12.077 6.26-18.13 0.54-1.56 0.55-1.57 2.19-1.57 1.05 0 2.11 0.08 3.15 0s1.53 0.37 1.86 1.36c2.39 6.87 4.8 13.78 7.16 20.63l0.76 2.22c-1.18 0-2.25 0.06-3.32 0.07s-2.21 0-3.47 0l-1.52-4.69h-6.31z" fill="#323947"/>
 <path d="m38.06 31.4v-3.92c1.78 0 3.56-0.06 5.33 0 0.97553 0.10013 1.6914 0.96273 1.61 1.94 0.15556 0.98987-0.57939 1.8969-1.58 1.95-1.68 0.13-3.42 0.03-5.36 0.03zm0-9.21h4.44c1.17 0 1.66-0.62 1.65-1.77s-0.48-1.71-1.66-1.76c-1.44-0.05-2.89 0-4.43 0z" fill="#fff"/>
</svg>

<svg viewBox="0 0 297 50" xmlns="http://www.w3.org/2000/svg">
 <path transform="translate(0)" d="m80.48 35.78c-2.68 4.07-5.32 8-7.85 12a2.76 2.76 0 0 1-2.69 1.47c-3.5-0.07-7 0-10.52 0a1.78 1.78 0 0 1-0.52 0c-0.47-0.15-1.17-0.23-1.31-0.54s0.11-1 0.37-1.39c2.27-3.4 4.57-6.77 6.87-10.16l7.47-11c0.23-0.33 0.42-0.69 0.7-1.13-1.43-2.13-2.84-4.26-4.28-6.38l-10.63-15.71a5.31 5.31 0 0 1-0.55-0.94 0.83 0.83 0 0 1 0.6-1.17 1.1 1.1 0 0 1 0.35 0c4.15 0 8.3 0 12.45 0.06 0.53 0 1.19 0.68 1.54 1.21 2.53 3.78 5 7.61 7.5 11.42 0.13 0.19 0.27 0.38 0.5 0.69a13.56 13.56 0 0 0 0.86-1.06c2.43-3.75 4.89-7.45 7.28-11.15a2.26 2.26 0 0 1 2.13-1.23c10.93 0 21.86 0 32.78 0.1a16.36 16.36 0 0 1 11.27 4.07 13.1 13.1 0 0 1 4.06 8.12 18.92 18.92 0 0 1-0.52 8.15c-1.58 5.37-5.33 8.47-10.68 9.77a32.29 32.29 0 0 1-8.18 0.66h-4c0 0.61-0.09 1.11-0.09 1.61v14c0 1.94 0 1.95-1.95 2h-22.26a2.77 2.77 0 0 1-2.72-1.43c-2.22-3.57-4.57-7.05-6.89-10.56-0.32-0.49-0.68-0.93-1.09-1.48zm22.15 10.74v-42.9c-0.25 0.3-0.37 0.41-0.47 0.55-4.45 6.56-8.89 13.14-13.37 19.67a1.74 1.74 0 0 0 0 2.33c2.43 3.49 4.8 7 7.18 10.56zm12.84-24.65h6c4.3-0.13 6.47-3.11 5.5-7.36a4.47 4.47 0 0 0-3.32-3.67 27.13 27.13 0 0 0-8.17-0.37zm54.17 3.05c-0.18-13.6 11.26-24.92 24.91-24.92a25 25 0 0 1 0 50c-13.63 0-25.15-11.34-24.91-25.07zm24.91 13.36a13.29 13.29 0 1 0-13.27-13.28 13.28 13.28 0 0 0 13.28 13.29zm46.28-6.57h-6.57v1.81q0 6.93 0 13.86c0 1.82 0 1.83-1.88 1.83h-8.94c-1.65 0-1.73-0.07-1.73-1.64q0-22.55 0-45.09c0-1.63 0.08-1.7 1.66-1.7 6.6 0 13.21 0 19.81 0.06a19.65 19.65 0 0 1 7.17 1.42c5 2 8 5.72 8.67 11.13a17.23 17.23 0 0 1-1.77 10.54 15.41 15.41 0 0 1-5 5.23c0.33 0.64 0.62 1.25 1 1.84q4.64 8 9.29 16.06c0.12 0.2 0.26 0.39 0.36 0.6 0.5 1.08 0.25 1.52-1 1.53h-11.22c-1.1 0-1.51-0.65-1.91-1.48q-3.44-7.08-6.92-14.14c-0.33-0.57-0.67-1.19-1.01-1.85zm-6.48-9.87c2.64 0 5.2 0.07 7.74 0a4.92 4.92 0 0 0 5-4.45c0.6-3.32-1.11-6.4-4-6.68s-5.78-0.06-8.73-0.06zm60.07 6.16q0-3.07 0-6.14c0-1.68-0.11-1.77-1.81-1.77h-13.32c-0.5 0-1-0.06-1.48-0.09v-9.44h16.19c2.33 0 2.33 0 2.33-2.25v-5.61c0-0.56-0.06-1.13-0.09-1.78-0.65 0-1.16-0.09-1.68-0.09h-28.4c-0.74 0-1.06 0.35-1 1.08v1.05q0 22 0 44v1.23a0.89 0.89 0 0 0 1 1h29.8c0.7 0 1.1-0.27 1.1-1q0-3.86 0-7.72a0.91 0.91 0 0 0-0.95-1h-18.23v-9.65h16.37a16.68 16.68 0 0 0 0.17-1.82zm-141.88-27.21h-10c-1.22 0-1.4 0.2-1.49 1.4v1.23q0 21.49 0 43v1.23c0.06 1.42 0.21 1.59 1.66 1.59h27c1.5 0 1.6-0.1 1.61-1.58v-7.19c0-1.72 0-1.76-1.77-1.76h-14.36c-0.5 0-1-0.06-1.59-0.11v-37.68a10.19 10.19 0 0 0-1.06-0.13z" fill="#20899b"/>
 <path transform="translate(0)" d="M38.06,31.4V27.48c1.78,0,3.56-.06,5.33,0A1.8,1.8,0,0,1,45,29.42a1.69,1.69,0,0,1-1.58,1.95C41.74,31.5,40,31.4,38.06,31.4Zm0-9.21c1.55,0,3,0,4.44,0,1.17,0,1.66-.62,1.65-1.77s-.48-1.71-1.66-1.76c-1.44-.05-2.89,0-4.43,0Zm-20.4-1.53-2.11,7.11h4.14ZM.5,49.21q24.27,0,48.54,0a1.83,1.83,0,0,0,1.7-.93q7.49-11.1,15-22.17a1.72,1.72,0,0,0,0-2.31Q58.26,12.93,50.9,1.95A2.36,2.36,0,0,0,48.64.76Q25,.8,1.33.79C.89.79.45.85,0,.89V49.11A3.62,3.62,0,0,0,.5,49.21ZM31.29,13c.4,0,.74-.09,1.08-.09,4.15,0,8.3,0,12.45,0a5.62,5.62,0,0,1,5.62,3.9A6.51,6.51,0,0,1,48.66,24c-.22.18-.46.35-.84.64.44.28.78.53,1.14.74,2.43,1.43,3.12,3.68,2.86,6.3a5.18,5.18,0,0,1-3.75,4.61,15.6,15.6,0,0,1-4.43.86c-3.85.12-7.71,0-11.57,0a6.89,6.89,0,0,1-.77-.1ZM13.07,37H6.26c.5-1.52,1-3,1.48-4.44Q10.88,23.51,14,14.43c.54-1.56.55-1.57,2.19-1.57,1.05,0,2.11.08,3.15,0s1.53.37,1.86,1.36C23.59,21.09,26,28,28.36,34.85l.76,2.22c-1.18,0-2.25.06-3.32.07s-2.21,0-3.47,0l-1.52-4.69H14.5Z" fill="#fff"/>
</svg>
